_includes/icons/color-yahoo.svg

<svg fill="#666" height="50" viewBox="0 0 48 48" width="50" xmlns="http://www.w3.org/2000/svg"><path d="m9 5s1.398438.300781 2.5.300781c1.101563 0 2.5-.300781 2.5-.300781l10 17 10.101563-17s1.097656.398438 2.398437.398438c1.398438 0 2.5-.398438 2.5-.398438l-13 22 .398438 16s-1.398438-.398437-2.398438-.398437-2.5.398437-2.5.398437l.5-16z" fill="#673ab7"/></svg>

<svg xmlns="http://www.w3.org/2000/svg" viewBox="0 0 48 48" width="50" height="50" fill="#666"><path d="M 9 5 C 9 5 10.398438 5.300781 11.5 5.300781 C 12.601563 5.300781 14 5 14 5 L 24 22 L 34.101563 5 C 34.101563 5 35.199219 5.398438 36.5 5.398438 C 37.898438 5.398438 39 5 39 5 L 26 27 L 26.398438 43 C 26.398438 43 25 42.601563 24 42.601563 C 23 42.601563 21.5 43 21.5 43 L 22 27 Z" fill="#673ab7"/></svg>
